X: 9341
T: Dancing Bear, The
R: reel
M: 4/4
K: Eminor
|:EFGF EFGF|EFGA G2 E2|EFGF EFGF|EFGA G2 E2|
EFGF EFGF|EFGA B2 e2|B2Bc BAGF|G2E2 E3z:|
|:e2 ef gfef|gf e2 e3z|e2 ef gfef|gf e2 e3z|
e2 ef gfef|gf e2 dcB2|B2Bc BAGF|G2E2 E3z:|

